X:5220
T:Pop Goes the Weasel. GHW.003
O:england
M:6/8
L:1/8
S:George H.Watson,MS,Swanton Abbott,Norfolk,1850-1880
R:Jig
A:Norfolk
N:mf indication at start of tune - assuming convention of notation under
N:the relevant stave - otherwise could be at start of B part.
N:Third bar of B part in MS appears as g3A3 e2 g - I have interpreted as
N:double stop first dotted crotchet, then crochet quaver
N:Rall sign over rests in penultimate bar of B part
K:G
G2G A2A|(Bd)B G2z|G2G A2A|(B3 G2) z|G2G A2A|(Bd)B G2z|.e zz (A2c)|(B3 G2
) z:|
"MF"g3 e2g|(faf d2 z|[f3A3] e2 g|(f3 d2)z|.c z .B .c z .d|.e z .f .g zz|
[eG]
z z A2 c|(B3G2) z:|
